X:1
T:Alice's Reel
R:reel
S:bil  irtrad-l 2001-5-02
H:Played in Em or Bm
D:De Danann: Jacket of Batteries
D:Frankie Gavin: Frankie Goes to Town
D:Kathryn Tickell Band
Z:id:hn-reel-347
M:C|
K:Em
   EGBG AGED | E2GE DEB,D | EGBG A2 (3Bcd | e2dB AGED |
   EGBG AGED | E2GE DEB,D | DB,A,B, DEFA |1 BGAF GEED :|2 BGAF GEEF ||
|: G2DB, DGBG | A2EC EcBA | G2DB, DGBG |1 AcBA GEEF :|2 AcBA GEFD ||
